!!!ONB: MCCC : IJH0431_04 : Extracted Monophonic Melody
!!!COM: Haydn, Joseph
!!!OPR: String Quartet in D major 'The Lark'
!!!OMV: 4
!!!SCT: Hob.III:63 ; Op.64 No.5
!!!ODT: 1790///
**kern
*thru
*k[f#c#]
*D:
*clefF
*M2/4
16f#
16g
=1
16a
16f#
16g
16a
16b
16cc#
16dd
16b
=2
16a
16dd
16ff#
16ee
16dd
16cc#
16b
16a
=3
16g
16a
16f#
16g
16e
16f#
16d
16e
=4
16c#
16d
16e
16c#
16A
16e
16f#
16g
=5
16a
16f#
16g
16a
16b
16cc#
16dd
16b
=6
16a
16dd
16ff#
16ee
16dd
16cc#
16b
16a
=7
16b
16dd
16b
16g
16f#
16a
16g
16e
=8
16d
16f#
16a
16f#
16d
16e
16f#
16g#
=9
16a
16cc#
16b
16g#
16a
16cc#
16ee
16cc#
=10
16a
16cc#
16b
16g#
16a
16cc#
16ee
16cc#
=11
16b
16dd
16cc#
16a#
16b
16dd
16ff#
16dd
=12
16b
16dd
16cc#
16a#
16b
16dd
16ff#
16gg#
=13
16aa
16gg#
16ff#
16ee
16dd#
16ff#
16ee
16b
=14
16dd
16cc#
16b
16a
16g#
16b
16a
16e
=15
16d
16e
16f#
16d
16c#
16e
16a
16cc#
=16
16b
16dd
16b
16g#
16a
16A
16a
16b
=17
16cc#
16a
16cc#
16dd
16ee
16cc#
16dd
16b
=18
16cc#
16a
16cc#
16dd
16ee
16cc#
16ee
16ff#
=19
16gg
16aa
16ff#
16aa
16gg
16ee
16cc#
16a
=20
16g
16a
16f#
16a
16g
16e
16f#
16g
=21
16a
16f#
16g
16a
16b
16cc#
16dd
16b
=22
16a
16dd
16ff#
16ee
16dd
16cc#
16b
16a
=23
16g
16a
16f#
16g
16e
16f#
16d
16e
=24
16c#
16d
16e
16c#
16A
16e
16f#
16g
=25
16a
16f#
16g
16a
16b
16cc#
16dd
16b
=26
16a
16dd
16ff#
16ee
16dd
16cc#
16b
16a
=27
16b
16dd
16b
16g
16f#
16a
16g
16e
=28
16d
16f#
16a
16f#
16d
16e
8r
=29
16d
16f#
16a
16f#
16d
16e
16f
16g
=30
8a
4dd
8cc#
=31
8dd
8ee
8ff
8ff#
=32
8gg
8aa
8bb-
8dd
=33
8cc#
4aa
8gg
=34
16ff
16gg
16ee
16ff
16dd
16ff
16ee
16dd
=35
16cc
16ee
16aa
16gg#
16aa
16ee
16aa
16gg
=36
16ff
16aa
16ddd
16ccc#
16ddd
16aa
16ddd
16ff
=37
16ddd
16ccc
16bb
16aa
16gg#
16aa
16bb
16ee
=38
16aa
16ee
16aa
16ff
16aa
16gg
16ee
16cc#
=39
16dd
16ee
16ff
16gg
16aa
16bb-
16aa
16gg
=40
16ff
16gg
16ee
16ff
16dd
16a
16dd
16cc
=41
16b-
16cc
16a
16b-
16g
16a
16f
16g
=42
16e
16f
16d
16e
16c
16d
16B-
16c
=43
4A
4r
=44
2r
=45
2r
=46
2r
=47
2r
=48
2r
=49
8r
4gg
8ff#
=50
8gg
8aa
8bb-
8bb
=51
8ccc
8ddd
8eee-
8gg
=52
8ff#
4ddd
8ccc
=53
8bb-
8ccc
8ddd
8ff
=54
8ee
4ccc
8bb-
=55
8aa
16bb-
16aa
8gg
16aa
16gg
=56
16ff
32ee
32ff
16gg
16ff
8ee
16ff
16gg
=57
8aa
4dd
8cc#
=58
4.ff
8ee
=59
4.aa
8gg#
=60
4.ccc
8bb
=61
4.eee
8fff
=62
4ggg
4ccc#
=63
8ddd
4ddd
8ccc
=64
16bb-
16ddd
16ccc
16bb-
16aa
16ccc
16bb-
16aa
=65
16gg
16bb-
16aa
16gg
16ff
16aa
16gg
16ff
=66
16ee
16gg
16ff
16ee
16dd
16ff
16ee
16dd
=67
16cc#
16dd
16ee
16cc#
16a
16b-
16a
16g
=68
16f
16g
16a
16f
16d
16f
16e
16d
=69
16c#
16d
16e
16d
16f
16e
16g
16f
=70
16a
16g
16b-
16a
16dd
16cc#
16ee
16dd
=71
16ff
16ee
16gg
16ff
16aa
16gg
16bb-
16aa
=72
16bb-
16gg
16ee
16cc#
16b-
16g
16e
16c#
=73
8B-
8A
8c#
8e
=74
16g
16a
16b-
16a
16g
16a
16f
16g
=75
16e
16f
16g
16f
16e
16f
16d
16e
=76
16c#
16e
16d
16c#
16d
16e
16f#
16g
=77
16a
16f#
16g
16a
16b
16cc#
16dd
16b
=78
16a
16dd
16ff#
16ee
16dd
16cc#
16b
16a
=79
16g
16a
16f#
16g
16e
16f#
16d
16e
=80
16c#
16d
16e
16c#
16A
16e
16f#
16g
=81
16a
16f#
16g
16a
16b
16cc#
16dd
16b
=82
16a
16dd
16ff#
16ee
16dd
16cc#
16b
16a
=83
16b
16dd
16b
16g
16f#
16a
16g
16e
=84
16d
16f#
16a
16f#
16d
16e
16f#
16g#
=85
16a
16cc#
16b
16g#
16a
16cc#
16ee
16cc#
=86
16a
16cc#
16b
16g#
16a
16cc#
16ee
16cc#
=87
16b
16dd
16cc#
16a#
16b
16dd
16ff#
16dd
=88
16b
16dd
16cc#
16a#
16b
16dd
16ff#
16gg#
=89
16aa
16gg#
16ff#
16ee
16dd#
16ff#
16ee
16b
=90
16dd
16cc#
16b
16a
16g#
16b
16a
16e
=91
16d
16e
16f#
16d
16c#
16e
16a
16cc#
=92
16b
16dd
16b
16g#
16a
16A
16a
16b
=93
16cc#
16a
16cc#
16dd
16ee
16cc#
16dd
16b
=94
16cc#
16a
16cc#
16dd
16ee
16cc#
16ee
16ff#
=95
16gg
16aa
16ff#
16aa
16gg
16a
16cc#
16ee
=96
16gg
16aa
16ff#
16aa
16gg
16ee
16ff#
16gg
=97
16aa
16ff#
16gg
16aa
16bb
16ccc#
16ddd
16bb
=98
16aa
16ddd
16fff#
16eee
16ddd
16ccc#
16bb
16aa
=99
16gg
16aa
16ff#
16gg
16ee
16ff#
16dd
16ee
=100
16cc#
16dd
16ee
16cc#
16a
16ee
16ff#
16gg
=101
16aa
16ff#
16gg
16aa
16bb
16ccc#
16ddd
16bb
=102
16aa
16ddd
16fff#
16eee
16ddd
16ccc#
16bb
16aa
=103
16bb
16gg
16bb
16gg
16ff#
16aa
16a
16cc#
=104
16dd
16ff#
16aa
16ff#
16dd
16ee
16cc#
16dd
=105
16b
16dd
16ff#
16dd
16b
16cc#
16a
16b
=106
16g
16b
16dd
16b
16g
16a
16f#
16g
=107
16e
16f#
16d
16e
16c#
16d
16B
16c#
=108
16A
16B
16c#
16d
16c#
16d
16e
16f#
=109
16g
16d#
16e
16f#
16g
16e
16f#
16g
=110
16a
16f#
16g
16a
16b
16cc#
16dd
16b
=111
16a
16b
16g
16a
16f#
16dd
16dd
16dd
=112
16dd
16dd
16dd
16dd
16dd
16dd
16dd
16dd
=113
16dd
16dd
16dd
16dd
16dd
16ee
16ff#
16gg
=114
16aa
16ff#
16gg
16aa
16bb
16ccc#
16ddd
16bb
=115
16aa
16bb
16gg
16aa
16ff#
16aa
16ddd
16ccc#
=116
16ddd
16dd
16ddd
16ccc#
16bb
16aa
16gg
16bb
=117
16ddd
16dd
16ddd
16ccc#
16bb
16aa
16gg
16bb
=118
16ddd
16dd
16ddd
16ccc#
16bb
16aa
16gg
16bb
=119
4ddd
8r
8bb
=120
16aa
16ddd
16ff#
16aa
16gg
16ee
16cc#
16a
=121
4dd
8r
16ee
16dd
=122
16cc#
16b#
16cc#
16b#
16cc#
16dd
16ee
16dd
=123
16cc#
16b#
16cc#
16b#
16cc#
16dd
16ee
16dd
=124
16cc#
16b#
16cc#
16b#
16cc#
16dd
16ee
16dd
=125
16cc#
16b#
16cc#
16b#
8cc#
8dd
=126
8ee
8r
8cc#
8r
=127
8aa
8r
8bb
8r
=128
16cc#
16dd
16ee
16ff#
16gg
16aa
16bb
16ccc#
=129
4ddd
4r
==
*-
